!!!SOCIAL_FUNCTION:	songs connected with ceremonies
!!!PDT:	1929
!!!OTL: No_99_We_are_Singing_in_the_Night.krn
!!!REG: Southwest
!!!LANG: Non-Tone
!!!LING_GROUP: Uto-Aztecan
**kern
*staff1
=1-
*clefF4
*k[b-e-a-d-g-c-]
*M2/4
8.c-\L
16B-\Jk
8.c-\L
16B-\Jk
=2
4c-\
8.B-\L
16F\Jk
=3
4.G-\
8F\
=4
8.B-\L
16G-\Jk
8.B-\L
16G-\Jk
=5
4B-\
8.G-\L
16E-\Jk
=6
4E-\
8E-\L
16F\L
16F\JJ
=7||
*M3/4
2F\
8.E-/L
16C-/Jk
=8||
*M2/4
4E-\
8.C-/L
16C-/Jk
=9
2C-/
=10
4E-\
8.F\L
16F\Jk
=11
4F\
8.F\L
16E-\Jk
=12||
*M3/4
4F\
8.E-\L
16E-\Jk
8G-\L
16E-\L
16E-\JJ
=13
4F\
8F\L
8F\J
8.E-/L
16C-/Jk
=14
8F\L
8F\J
8E-/L
16C-/L
16C-/JJ
8r
8E-\
=15||
*M2/4
4.F\
8F\
=16
8.F\L
16F\Jk
8.E-/L
16C-/Jk
=17
8F\L
8F\J
8E-\L
16E-\L
16E-\JJ
=18
2E-\
==
*-
